packages/vapor/resources/icons/svg/source-dynamics.svg

<svg viewBox="0 0 32 32" xmlns="http://www.w3.org/2000/svg"><path d="m30 2v28h-28v-28zm0-2h-28a2 2 0 0 0 -2 2v28a2 2 0 0 0 2 2h28a2 2 0 0 0 2-2v-28a2 2 0 0 0 -2-2z" fill="#bcc3ca"/><g fill="#001f51"><path d="m9 4.77 13.23 6.92-4.15 3.39-9.08-4.46z"/><path d="m9 11.85 4.46 2.77-4.46 12.61z"/><path d="m23 19.54-14 7.69 14-15.08z"/></g></svg>

<svg xmlns="http://www.w3.org/2000/svg" viewBox="0 0 32 32">
<path d="M30,2V30H2V2H30m0-2H2A2,2,0,0,0,0,2V30a2,2,0,0,0,2,2H30a2,2,0,0,0,2-2V2A2,2,0,0,0,30,0Z" style="fill:#bcc3ca"/>
<polygon points="9 4.77 22.23 11.69 18.08 15.08 9 10.62 9 4.77" style="fill:#001f51"/>
<polygon points="9 11.85 13.46 14.62 9 27.23 9 11.85" style="fill:#001f51"/>
<polygon points="23 19.54 9 27.23 23 12.15 23 19.54" style="fill:#001f51"/>
</svg>
